X:18191
T: Maxwell's Rant
R: march
B: RSCDS 18-19(I) (in F)
Z: 1997 by John Chambers <jc:trillian.mit.edu>
M: 2/4
L: 1/8
%--------------------
K: G
|: ef \
| "G"g2G2 B2G2 | "D7"F2A2 A2ef | "G"g2G2 B2d2 | g4- "D7"g2ef \
| "G"g2G2 B2G2 | "D7"F2A2 GF | "C"E2G2 "D7"F2A2 | "G"G4- G2 :|
|: d2 \
| "G"g3a b2g2 | "D7"agfe d2d2 | "G"g3a "Em"g2b2 | "Am"a4- "D7"a2d2 \
| "G"g3a "Em"b2g2 | "Am"agfe "D7"d2ga | "G"b2g2 "D7"a2f2 | "C"g4- "G"g2 :|
